svgs/regular/house-chimney-heart.svg

<svg xmlns="http://www.w3.org/2000/svg" viewBox="0 0 576 512"><!--! Font Awesome Pro 6.3.0 by @fontawesome - https://fontawesome.com License - https://fontawesome.com/license (Commercial License) Copyright 2023 Fonticons, Inc. --><path d="M272.5 5.7c9-7.6 22.1-7.6 31.1 0L464 141.9V56c0-13.3 10.7-24 24-24s24 10.7 24 24V182.6l55.5 47.1c10.1 8.6 11.4 23.7 2.8 33.8s-23.7 11.3-33.8 2.8L512 245.5V432c0 44.2-35.8 80-80 80H144c-44.2 0-80-35.8-80-80V245.5L39.5 266.3c-10.1 8.6-25.3 7.3-33.8-2.8s-7.3-25.3 2.8-33.8l264-224zM112 204.8V432c0 17.7 14.3 32 32 32H432c17.7 0 32-14.3 32-32V204.8L288 55.5 112 204.8zM237.3 208c16.2 0 31.8 6.5 43.3 17.9l7.4 7.4 7.4-7.4c11.5-11.5 27.1-17.9 43.3-17.9c33.8 0 61.3 27.4 61.3 61.3c0 16.2-6.5 31.8-17.9 43.3l-82.7 82.7c-6.2 6.2-16.4 6.2-22.6 0l-82.7-82.7c-11.5-11.5-17.9-27.1-17.9-43.3c0-33.8 27.4-61.3 61.3-61.3z"/></svg>

<svg xmlns="http://www.w3.org/2000/svg" viewBox="0 0 576 512"><!--! Font Awesome Pro 6.2.0 by @fontawesome - https://fontawesome.com License - https://fontawesome.com/license (Commercial License) Copyright 2022 Fonticons, Inc. --><path d="M184 224C206.1 201.9 241.9 201.9 264 224L288 248L312 224C334.1 201.9 369.9 201.9 392 224C414.1 246.1 414.1 281.9 392 304L299.3 396.7C293.1 402.9 282.9 402.9 276.7 396.7L183.1 304C161.9 281.9 161.9 246.1 183.1 224H184zM272.5 5.7C281.4-1.9 294.6-1.9 303.5 5.7L464 141.9V56C464 42.75 474.7 31.1 488 31.1C501.3 31.1 512 42.75 512 56V182.6L567.5 229.7C577.6 238.3 578.9 253.4 570.3 263.5C561.7 273.6 546.6 274.9 536.5 266.3L512 245.5V432C512 476.2 476.2 512 432 512H144C99.82 512 64 476.2 64 432V245.5L39.53 266.3C29.42 274.9 14.28 273.6 5.7 263.5C-2.876 253.4-1.634 238.3 8.473 229.7L272.5 5.7zM112 204.8V432C112 449.7 126.3 464 144 464H432C449.7 464 464 449.7 464 432V204.8L288 55.47L112 204.8z"/></svg>
